X: 57
T: No_50_Double_Dance_Song_(b).krn
N: Derived from No_50_Double_Dance_Song_(b).krn
%%abc-version 2.0
%%abcx-abcm2ps-target-version 5.9.1 (29 Sep 2008)
%%abc-creator hum2abc beta
%%abcx-conversion-date 2019/03/15 08:36:49
%%humdrum-veritas 782041570
%%humdrum-veritas-data 1866539080
%%linebreak <none>
%%barnumbers 0
L: 1/8
M: 2/4
%%staves {1 2}
V: 1 clef=bass
V: 2 clef=bass
K: A
[V:1] [K:clef=bass][M:2/4]CA,/A,/C2 [I:setbarnb 2]||  
[V:2] [K:clef=bass][M:2/4]G,,G,, G,,G,, ||  
[V:1] [M:3/4]A,F,/E,/A,2F,E, ||  
[V:2] [M:3/4]G,,G,, G,,G,, G,,G,, ||  
[V:1] [M:2/4]C,3/F,/E,2 | 
[V:2] [M:2/4]z4 | 
[V:1] C,3/F,/ E,3/C,/ | 
[V:2] z4 | 
[V:1] C,4 | 
[V:2] z4 | 
[V:1] !fermata!C,4 | 
[V:2] z4 | 
[V:1] F,E, (3C,E,E, | 
[V:2] z4 | 
[V:1] C,4 ||  
[V:2] z4 ||  
[V:1] [M:3/4]F,E, (3C,E,E,C,2 :|]  
[V:2] [M:3/4]z6 :|]  



